X:15
T:Arthur's Seat
R:Reel
C:Captain Fraser
B:The Athole Collection
M:C|
L:1/8
K:B Minor
c|BF F/F/F d2de|cAeA fedc|BF F/F/F d2de|fedc dBBc|BF F/F/F d2de|
cBAa fedc|BF F/F/F d2de|fedc dBB||c|Bbba gfed|caed cAAc|Bbba gfed|
caec dBBc|Bbba gfed|caed cAAc|BFBc dcde|fedc dBB||

